X: 18647
T: I'd Rather Be Married Than Left
R: slide
M: 12/8
K: Dmajor
|:B|ABA AFA d2A A2B|ABA AFA B2E E2A|
DFA AFA d2e f2e|dcB ABc d2A A2:|
|:g|f3 fed e2A A2g|f3 def g3 efg|
fed fed fed a2g|fgf efe d2A A2:|

